web/packages/design/src/ResourceIcon/assets/gable.svg

<svg width="72" height="72" viewBox="0 0 72 72" fill="none" xmlns="http://www.w3.org/2000/svg">
<path d="M36.2221 3.12997C39.628 3.12997 42.7804 4.93623 44.4238 7.82562L60.9651 35.9682L61.156 36.3126C63.4788 40.7421 61.7727 46.211 57.2962 48.6089C55.1163 49.7785 52.5673 50.0558 50.187 49.3821C47.8241 48.7339 45.8125 47.1792 44.5898 45.0559L36.291 31.1881L17.5866 64.1296C16.7856 65.5238 15.6416 66.6902 14.2632 67.5181C12.8847 68.3459 11.3175 68.8077 9.71045 68.8597L9.35671 68.8691C7.28305 68.8723 5.26502 68.1985 3.60923 66.9501C-0.0690306 64.1891 -1.07077 59.0583 1.2301 55.0044L27.9922 7.86632C28.8239 6.42069 30.0234 5.22098 31.4689 4.38909C32.9144 3.5572 34.5543 3.12278 36.2221 3.12997ZM63.0343 50.938C65.4116 50.9396 67.691 51.8847 69.3721 53.5658C71.0531 55.2468 71.9982 57.5262 71.9998 59.9035C71.9982 62.2808 71.0531 64.5603 69.3721 66.2413C67.691 67.9223 65.4116 68.8674 63.0343 68.8691C60.657 68.8674 58.3775 67.9223 56.6965 66.2413C55.0155 64.5603 54.0704 62.2808 54.0687 59.9035C54.0704 57.5262 55.0155 55.2468 56.6965 53.5658C58.3775 51.8847 60.657 50.9396 63.0343 50.938ZM36.2221 8.76475C34.8259 8.76475 33.5518 9.49414 32.8944 10.6461L6.12923 57.7874C5.21514 59.3995 5.60645 61.403 6.9901 62.4423C7.68506 62.962 8.49271 63.2343 9.35671 63.2343C10.756 63.2343 12.0301 62.5018 12.6844 61.3498L33.7772 24.2041C34.0203 23.7757 34.3715 23.4185 34.7957 23.1681C35.22 22.9178 35.7024 22.7831 36.195 22.7774C36.6875 22.7717 37.1729 22.8952 37.6028 23.1357C38.0327 23.3761 38.3921 23.725 38.6451 24.1477L49.4544 42.2197C49.9397 43.0681 50.7317 43.6816 51.7115 43.9571C52.7007 44.2388 53.7337 44.1261 54.6353 43.6441C56.4322 42.6799 57.0739 40.523 56.1285 38.8545L39.5466 10.6493C39.2073 10.0704 38.7212 9.59134 38.1375 9.26045C37.5538 8.92956 36.8931 8.75857 36.2221 8.76475ZM63.0343 56.5728C61.1998 56.5728 59.7035 58.0691 59.7035 59.9035C59.7035 61.738 61.1998 63.2343 63.0343 63.2343C64.8687 63.2343 66.3651 61.738 66.3651 59.9035C66.3651 58.0691 64.8687 56.5728 63.0343 56.5728Z" fill="#8D2DF2"/>
</svg>

<svg xmlns="http://www.w3.org/2000/svg" width="72" height="72" fill="none" viewBox="0 0 72 72"><path fill="#8d2df2" d="M36.222 3.13c3.406 0 6.558 1.806 8.202 4.696l16.541 28.142.191.345c2.323 4.43.617 9.898-3.86 12.296a9.54 9.54 0 0 1-7.109.773 9.3 9.3 0 0 1-5.597-4.326l-8.3-13.868L17.587 64.13a9.44 9.44 0 0 1-7.877 4.73l-.353.01a9.52 9.52 0 0 1-5.748-1.92c-3.678-2.76-4.68-7.892-2.379-11.946L27.992 7.866a9.45 9.45 0 0 1 8.23-4.736m26.812 47.808A8.97 8.97 0 0 1 72 59.903a8.97 8.97 0 0 1-8.966 8.966 8.97 8.97 0 0 1-8.965-8.965 8.97 8.97 0 0 1 8.965-8.966M36.222 8.765c-1.396 0-2.67.73-3.328 1.881L6.13 57.787c-.914 1.613-.523 3.616.861 4.655a3.9 3.9 0 0 0 2.367.792c1.399 0 2.673-.732 3.327-1.884l21.093-37.146a2.818 2.818 0 0 1 4.868-.056l10.81 18.072a3.72 3.72 0 0 0 2.257 1.737c.989.282 2.022.17 2.923-.313 1.797-.964 2.439-3.121 1.494-4.79L39.547 10.65a3.81 3.81 0 0 0-3.325-1.884m26.812 47.808a3.337 3.337 0 0 0-3.33 3.33 3.337 3.337 0 0 0 3.33 3.331 3.337 3.337 0 0 0 3.331-3.33 3.337 3.337 0 0 0-3.33-3.331"/></svg>
